svg/file_multiple_outline.svg

<svg xmlns="http://www.w3.org/2000/svg" viewBox="0 0 24 24"><path d="M16 0H8C6.9 0 6 .9 6 2v16c0 1.1.9 2 2 2h12c1.1 0 2-.9 2-2V6zm4 18H8V2h7v5h5zM4 4v18h16v2H4c-1.1 0-2-.9-2-2V4z"/></svg>

<?xml version="1.0" encoding="UTF-8"?><!DOCTYPE svg PUBLIC "-//W3C//DTD SVG 1.1//EN" "http://www.w3.org/Graphics/SVG/1.1/DTD/svg11.dtd"><svg xmlns="http://www.w3.org/2000/svg" xmlns:xlink="http://www.w3.org/1999/xlink" version="1.1" id="mdi-file-multiple-outline" width="24" height="24" viewBox="0 0 24 24"><path d="M16 0H8C6.9 0 6 .9 6 2V18C6 19.1 6.9 20 8 20H20C21.1 20 22 19.1 22 18V6L16 0M20 18H8V2H15V7H20V18M4 4V22H20V24H4C2.9 24 2 23.1 2 22V4H4Z" /></svg>
